ix/folder-cross_outline.svg

<svg viewBox="0 0 24 24" fill="none" xmlns="http://www.w3.org/2000/svg" height="1em" width="1em">
  <path d="M13.8109 16.4799C13.6209 16.4799 13.4309 16.4099 13.2809 16.2599L9.74094 12.7199C9.45094 12.4299 9.45094 11.9499 9.74094 11.6599C10.0309 11.3699 10.5109 11.3699 10.8009 11.6599L14.3409 15.1999C14.6309 15.4899 14.6309 15.9699 14.3409 16.2599C14.1909 16.3999 14.0009 16.4799 13.8109 16.4799Z" fill="#292D32"/>
  <path d="M10.2299 16.5199C10.0399 16.5199 9.84992 16.4499 9.69992 16.2999C9.40992 16.0099 9.40992 15.5299 9.69992 15.2399L13.2399 11.6999C13.5299 11.4099 14.0099 11.4099 14.2999 11.6999C14.5899 11.9899 14.5899 12.4699 14.2999 12.7599L10.7599 16.2999C10.6199 16.4399 10.4199 16.5199 10.2299 16.5199Z" fill="#292D32"/>
  <path d="M17 22.75H7C2.59 22.75 1.25 21.41 1.25 17V7C1.25 2.59 2.59 1.25 7 1.25H8.5C10.25 1.25 10.8 1.82 11.5 2.75L13 4.75C13.33 5.19 13.38 5.25 14 5.25H17C21.41 5.25 22.75 6.59 22.75 11V17C22.75 21.41 21.41 22.75 17 22.75ZM7 2.75C3.43 2.75 2.75 3.43 2.75 7V17C2.75 20.57 3.43 21.25 7 21.25H17C20.57 21.25 21.25 20.57 21.25 17V11C21.25 7.43 20.57 6.75 17 6.75H14C12.72 6.75 12.3 6.31 11.8 5.65L10.3 3.65C9.78 2.96 9.63 2.75 8.5 2.75H7Z" fill="#292D32"/>
</svg>

<svg viewBox="0 0 24 24" fill="none" xmlns="http://www.w3.org/2000/svg" height="1em" width="1em">
  <path d="M13.81 16.48c-.19 0-.38-.07-.53-.22l-3.54-3.54a.754.754 0 0 1 0-1.06c.29-.29.77-.29 1.06 0l3.54 3.54c.29.29.29.77 0 1.06-.15.14-.34.22-.53.22Z" fill="#292D32"/>
  <path d="M10.23 16.52c-.19 0-.38-.07-.53-.22a.754.754 0 0 1 0-1.06l3.54-3.54c.29-.29.77-.29 1.06 0 .29.29.29.77 0 1.06l-3.54 3.54c-.14.14-.34.22-.53.22Z" fill="#292D32"/>
  <path d="M17 22.75H7c-4.41 0-5.75-1.34-5.75-5.75V7c0-4.41 1.34-5.75 5.75-5.75h1.5c1.75 0 2.3.57 3 1.5l1.5 2c.33.44.38.5 1 .5h3c4.41 0 5.75 1.34 5.75 5.75v6c0 4.41-1.34 5.75-5.75 5.75Zm-10-20c-3.57 0-4.25.68-4.25 4.25v10c0 3.57.68 4.25 4.25 4.25h10c3.57 0 4.25-.68 4.25-4.25v-6c0-3.57-.68-4.25-4.25-4.25h-3c-1.28 0-1.7-.44-2.2-1.1l-1.5-2c-.52-.69-.67-.9-1.8-.9H7Z" fill="#292D32"/>
</svg>
